X: 5
T: Cooley's
R: hornpipe
M: 4/4
L: 1/8
K: Gmaj
(3def|gG G2 EGDG|BGDG GB dg|e2 ce d2 Bd|(3cBA BGA2 (3def|
gG G2 EGDG|BGDG GB dg|ecAG FAdc|BGAFG2:|
|:GA|B3d ed (3Bcd|g2 bg (3efg dB|c2 ge dGBd|cBAG A2 dc|
BGDc BDGF|E2cE D2Bd|g3e dBcA|BGAFG2:||


Tune 1052	Setting 14279

